X:968
T:Colonel John Irwin
T:Planxty Irwin
R:Waltz
O:Ireland
C:Turlough Carolan
B:O'Neill's 677
B:The Complete Works of O'Carolan
S:Robinson, Rearranged...
Z:Transcription, chords:Mike Long
M:6/8
L:1/8
K:D
A|\
"D"d2c "G"Bcd|"D/A"A2G "D"FED|"G"G2E "D"FGA|"A"C2D E2c|\
"D"d2c "G"Bcd|"D/A"A2G "D"FED|"G"G2E "D"FGA|"A"D2C "D"D2:|
|:A|\
"D"ded dcd|"A"efe ecA|"D"f2f "A/Em"efd|"G"cdB "A"ABc|\
"D"d2c "G"Bcd|"D/A"A2G  "D"FED|"G"G2E "D"FGA|"A"D2C "D"D2:|
